X:1
T:Humours of Bandon, The (1st Setting)
M:6/8
L:1/8
R:Set Dance
S:James Goodman music manuscript collection (mid-19th cent., County Cork, p. 65)
F: http://goodman.itma.ie/volume-one#?c=0&m=0&s=0&cv=68&z=857.0332%2C1025.5404%2C7374.2874%2C4466.6667
Z:AK/Fiddler's Companion
K:G
GF|DGG GFG|A>BA/G/ FGA|BGG GFG|ABd fef|
dde ccd|BAG FGA|ABG FDF|G3 G:|
|:Bc|dgg gfg|a>ba/g/ a2g|g2f d2e|d>ed/c/ B2d|
c2B A2c|B>cB/A/ G2B|A>BA/G/ F2D|DGG GFG|
ABd fef|dee cdd|BAG FGA|A>BA/G/ FDF|G3 G2:||

